X:1
T:Lord, Who Throughout These Forty Days
T: Hymnary.org 
T:Lord, Who Throughout These Forty Days
T: Hymnary.org 
Z:
Z:Hymnary.org
%%score ( 1 2 ) ( 3 4 )
L:1/8
M:6/4
K:F
V:1 treble nm="Piano" snm="Pno."
V:2 treble 
V:3 bass nm="Piano" snm="Pno."
V:4 bass 
V:1
 C2 | [CF]4 [CF]2 (([EG]2 [FA]2)) [Cc]2 | [DF]4 [DF]2 (D2 C2) C2 | [DF]4 [DF]2 (G2 A2) [Gc]2 | %4
w: 3~As|you did hun- * ger|and did thirst, _ so|teach us, gra- * cious|
w: 1~Lord,|who through- out _ these|for- ty days _ for|us didst fast _ and|
w: 2~As|you with Sa- * tan|did con- tend, _ and|did the vic- * tory|
 ([Fc-]6 [Ec]4) | [Ec]2 | [Fd]4 [Cc]2 (A3 B) [Ec]2 | [DF]4 [B,F]2 (D2 C2) C2 | %8
w: Lord, _|to|die to more, self, and|so to death, live by|
w: pray, _|teach|us with you _ to|mourn our sins _ and|
w: win, _|O|give us strength _ in|you to fight, _ in|
 F4 [FA]2 (B2 A2) [CG]2 | [CF]6- [CF]4 |] %10
w: your most ho- * ly|Word. *|
w: close by you _ to|stay. *|
w: you to con- * quer|sin. *|
V:2
 C2 | x12 | x6 A,4 C2 | x6 E4 x2 | x10 | x2 | x6 (D2 F2) x2 | x6 A,4 B,2 | (A,2 C2) x2 F4 x2 | %9
 x10 |] %10
V:3
 G,2 | [F,A,]4 [F,A,]2 [F,C]4 [F,A,]2 | [F,B,]4 [F,B,]2 F,4 [E,G,]2 | %3
 (A,2 B,2) [D,A,]2 [C,C]4 [B,,E,]2 | ([A,,-F,]6 [A,,A,]4) | [A,,A,]2 | %6
 (A,2 B,2) [E,G,]2 (A,2 D2) [A,,C]2 | (B,2 F,2) [D,F,]2 F,4 G,2 | [F,A,]4 [F,C]2 (D2 C2) [C,B,]2 | %9
 ([F,,-B,]6 [F,,A,]4) |] %10
V:4
 F,2 | x12 | x6 F,4 x2 | D,4 x8 | x10 | x2 | D,4 x2 F,4 x2 | B,,4 x2 F,4 F,2 | x6 C,4 x2 | x10 |] %10

